icon-themes/breeze_svg/cmd/lc_deleteallannotation.svg

<svg viewBox="0 0 24 24" xmlns="http://www.w3.org/2000/svg"><path d="m8 4v3h-4v8l3 3v-3h9v-3h1v3l3-3v-8zm1 1h10v6h-3-1-6v-3-1zm-4 3h3v4h7v2h-10zm10 9v1h5v-1z" fill="#f47750"/></svg>

<svg xmlns="http://www.w3.org/2000/svg" viewBox="0 0 24 24">
 <path 
     style="fill:#f47750" 
     d="M 8 4 L 8 7 L 4 7 L 4 15 L 7 18 L 7 15 L 16 15 L 16 12 L 17 12 L 17 15 L 20 12 L 20 4 L 8 4 z M 9 5 L 19 5 L 19 11 L 16 11 L 15 11 L 9 11 L 9 8 L 9 7 L 9 5 z M 5 8 L 8 8 L 8 12 L 15 12 L 15 14 L 5 14 L 5 8 z M 15 17 L 15 18 L 20 18 L 20 17 L 15 17 z "
     />
 </svg>
